**kern	**silbe	**kern	**silbe	**kern	**silbe
*ICvox	*	*ICvox	*	*ICvox	*
=1	=1	=1	=1	=1	=1
*A:	*	*A:	*	*A:	*
*M4/4	*	*M4/4	*	*M4/4	*
*clefF4	*	*clefC3	*	*clefG2	*
1r	.	1r	.	1r	.
=2	=2	=2	=2	=2	=2
1r	.	1r	.	1r	.
=3	=3	=3	=3	=3	=3
1r	.	1r	.	1r	.
=4	=4	=4	=4	=4	=4
1r	.	1r	.	1r	.
=5	=5	=5	=5	=5	=5
1C#	I'm	1r	.	1r	.
=6	=6	=6	=6	=6	=6
12D	drea-	1r	.	1r	.
12F#	_	.	.	.	.
12D	_	.	.	.	.
4C#	-ming	.	.	.	.
4r	.	.	.	.	.
16C	of	.	.	.	.
16C#	a	.	.	.	.
[8D	white	.	.	.	.
=7	=7	=7	=7	=7	=7
1D]	_	1r	.	1r	.
=8	=8	=8	=8	=8	=8
8D#	Christ-	1r	.	1r	.
[8E	-mas	.	.	.	.
2E]	_	.	.	.	.
4r	.	.	.	.	.
=9	=9	=9	=9	=9	=9
4r	.	1r	.	1r	.
16r	.	.	.	.	.
8F#	Just	.	.	.	.
[16G#	like	.	.	.	.
4G#]	_	.	.	.	.
8A	the	.	.	.	.
[8B	ones	.	.	.	.
=10	=10	=10	=10	=10	=10
2B_	_	1r	.	1r	.
8B]	_	.	.	.	.
8A	I	.	.	.	.
[4G#	used	.	.	.	.
=11	=11	=11	=11	=11	=11
8G#]	_	1r	.	1r	.
8F#	to	.	.	.	.
2.E	know.	.	.	.	.
=12	=12	=12	=12	=12	=12
2r	.	1r	.	1r	.
4r	.	.	.	.	.
8AA	Where	.	.	.	.
16BB	the	.	.	.	.
[16C#	tree	.	.	.	.
=13	=13	=13	=13	=13	=13
2C#]	_	1r	.	1r	.
4C	tops	.	.	.	.
4r	.	.	.	.	.
=14	=14	=14	=14	=14	=14
12C#	glis-	1r	.	1r	.
[6F#	-ten,	.	.	.	.
2F#]	_	.	.	.	.
4r	.	.	.	.	.
=15	=15	=15	=15	=15	=15
8r	.	1r	.	1r	.
[8E	and	.	.	.	.
8E]	_	.	.	.	.
[8AA	chil-	.	.	.	.
8AA]	_	.	.	.	.
4.AA	-dren	.	.	.	.
=16	=16	=16	=16	=16	=16
12AA	lis-	1r	.	1r	.
[6E	-ten,	.	.	.	.
2E]	_	.	.	.	.
8r	.	.	.	.	.
8D	to	.	.	.	.
=17	=17	=17	=17	=17	=17
1C#	hear	1r	.	1r	.
=18	=18	=18	=18	=18	=18
12D	sleigh	1r	.	1r	.
12F#	_	.	.	.	.
12D	_	.	.	.	.
2C#	bells	.	.	.	.
12BB	in	.	.	.	.
6AA	the	.	.	.	.
=19	=19	=19	=19	=19	=19
1BB	snow.	1r	.	1r	.
=20	=20	=20	=20	=20	=20
2r	.	1r	.	1r	.
4r	.	.	.	.	.
8r	.	.	.	.	.
16r	.	.	.	.	.
[16C#	I'm	.	.	.	.
=21	=21	=21	=21	=21	=21
1C#]	_	1r	.	1r	.
=22	=22	=22	=22	=22	=22
12D	drea-	1r	.	1r	.
12E	_	.	.	.	.
12D	_	.	.	.	.
4C#	-ming	.	.	.	.
4r	.	.	.	.	.
12r	.	.	.	.	.
12FF#	of	.	.	.	.
12BB	a	.	.	.	.
=23	=23	=23	=23	=23	=23
1D	white	1r	.	1r	.
=24	=24	=24	=24	=24	=24
8D#	Christ-	1r	.	1r	.
[8E	-mas	.	.	.	.
2.E]	_	.	.	.	.
=25	=25	=25	=25	=25	=25
4r	.	1r	.	1r	.
8r	.	.	.	.	.
8F#	with	.	.	.	.
8G#	ev-	.	.	.	.
[8A	-'ry	.	.	.	.
4A]	_	.	.	.	.
=26	=26	=26	=26	=26	=26
4B	Christ-	1r	.	1r	.
4A	-mas	.	.	.	.
2G#	card	.	.	.	.
=27	=27	=27	=27	=27	=27
8FF#	I	1r	.	1r	.
[8E	write	.	.	.	.
2.E]	_	.	.	.	.
=28	=28	=28	=28	=28	=28
2r	.	1r	.	1r	.
4AA	May	.	.	.	.
8BB	your	.	.	.	.
[8C#	days	.	.	.	.
=29	=29	=29	=29	=29	=29
2C#]	_	1r	.	1r	.
4r	.	.	.	.	.
8r	.	.	.	.	.
8FF#	be	.	.	.	.
=30	=30	=30	=30	=30	=30
8C#	mer-	1r	.	1r	.
[8F#	-ry	.	.	.	.
2F#]	_	.	.	.	.
4E	and	.	.	.	.
=31	=31	=31	=31	=31	=31
[1A	bright,	1r	.	1r	.
=32	=32	=32	=32	=32	=32
4A]	_	1r	.	1r	.
4r	.	.	.	.	.
4.AA	and	.	.	.	.
8BB	may	.	.	.	.
=33	=33	=33	=33	=33	=33
2.C#	all	1r	.	1r	.
4C#	your	.	.	.	.
=34	=34	=34	=34	=34	=34
4.F#	Christ-	1r	.	1r	.
8GG#	-ma-	.	.	.	.
4.GG#	-ses	.	.	.	.
8GG#	be	.	.	.	.
=35	=35	=35	=35	=35	=35
1AA	white.	1r	.	1r	.
=36	=36	=36	=36	=36	=36
1r	.	1r	.	1r	.
=37	=37	=37	=37	=37	=37
*	*	*clefF4	*	*	*
1r	.	1AA E c#	I'm	1e a cc#	_
=38	=38	=38	=38	=38	=38
1r	.	4AA F# d	drea-	4f# a dd	_
.	.	4AA E c#	-ming	4e a cc#	_
.	.	4AA D# c	of	4d# a cc	_
.	.	4AA E c#	a	4e a cc#	_
=39	=39	=39	=39	=39	=39
1r	.	1BB F# A d	white	1f# a dd	_
=40	=40	=40	=40	=40	=40
1r	.	4EE F## c# d#	Christ-	4g a# dd#	_
.	.	4EE G# d e	-mas,	4g# b ee	_
.	.	2r	.	2r	.
=41	=41	=41	=41	=41	=41
1r	.	4r	.	1r	.
.	.	4F#	just	.	.
.	.	4G#	like	.	.
.	.	8A	the	.	.
.	.	[8B	ones	.	.
=42	=42	=42	=42	=42	=42
1r	.	4B]	_	1r	.
.	.	4A	I	.	.
.	.	4.G#	used	.	.
.	.	8F#	to	.	.
=43	=43	=43	=43	=43	=43
1r	.	1E	know.	1r	.
=44	=44	=44	=44	=44	=44
1r	.	2r	.	1r	.
.	.	4A	Where	.	.
.	.	4B	the	.	.
=45	=45	=45	=45	=45	=45
1r	.	2AA E A c#	tree-	1r	.
.	.	2AA E G# B c#	-tops	.	.
=46	=46	=46	=46	=46	=46
1r	.	4AA E G c#	glis-	2r	.
.	.	2AA E G	-ten,	.	.
.	.	.	.	4r	.
.	.	4E	and	4e	_
=47	=47	=47	=47	=47	=47
1r	.	2AA D F# A	chil-	2d f# a	_
.	.	2AA D F# A	-dren	2d f# a	_
=48	=48	=48	=48	=48	=48
1r	.	4AA F A B	lis-	4d f a	_
.	.	4AA F A B	-ten,	4f b ee	_
.	.	4r	.	2r	.
.	.	4AA F d	to	.	.
=49	=49	=49	=49	=49	=49
1r	.	1AA E c#	hear...	4r	.
.	.	.	.	4e	To
.	.	.	.	4a	hear
.	.	.	.	4cc#	those
=50	=50	=50	=50	=50	=50
1r	.	1r	.	4f# b dd	sleigh
.	.	.	.	4e a cc#	bells
.	.	.	.	4d# g# b	in
.	.	.	.	4d# f# a	the
=51	=51	=51	=51	=51	=51
1r	.	1r	.	[1d [g# [b	snow
=52	=52	=52	=52	=52	=52
1r	.	1r	.	2.d] g#] b]	_
.	.	.	.	4r	.
=53	=53	=53	=53	=53	=53
1r	.	1r	.	1c#	I'm
=54	=54	=54	=54	=54	=54
1r	.	1r	.	4d	drea-
.	.	.	.	4c#	-ming
.	.	.	.	4c	of
.	.	.	.	4c#	a
=55	=55	=55	=55	=55	=55
1r	.	1r	.	1d	white
=56	=56	=56	=56	=56	=56
1r	.	1r	.	4d#	Christ-
.	.	.	.	4e	-mas,
.	.	.	.	2r	.
=57	=57	=57	=57	=57	=57
1r	.	1r	.	4r	.
.	.	.	.	4d f#	with
.	.	.	.	4e g#	ev-
.	.	.	.	4f# a	-'ry
=58	=58	=58	=58	=58	=58
1r	.	1r	.	4g# b	Christ-
.	.	.	.	4f# a	-mas
.	.	.	.	4e g#	card
.	.	.	.	4d f#	I
=59	=59	=59	=59	=59	=59
1r	.	1r	.	1c# e	write.
=60	=60	=60	=60	=60	=60
2r	.	1r	.	2r	.
4C#	May	.	.	4A	May
8D	your	.	.	4B	your
[8E	days	.	.	.	.
=61	=61	=61	=61	=61	=61
2E]	_	1r	.	2c#	days
4r	.	.	.	4r	.
8A	be	.	.	4c#	be
8G#	_	.	.	.	.
=62	=62	=62	=62	=62	=62
4G	mer-	1r	.	4c#	mer-
4A	-ry,	.	.	4f#	-ry
4r	.	.	.	4r	.
12r	.	.	.	4e	and
[12G	and	.	.	.	.
12G]	_	.	.	.	.
=63	=63	=63	=63	=63	=63
[2F#	bright,	1r	.	[1a	bright
8F#]	_	.	.	.	.
8A	_	.	.	.	.
8F#	_	.	.	.	.
[8F	_	.	.	.	.
=64	=64	=64	=64	=64	=64
4F]	_	1r	.	4a]	...
4r	.	.	.	4r	.
4.AA	and	.	.	2r	.
8BB	may	.	.	.	.
=65	=65	=65	=65	=65	=65
2C#	all	1r	.	1r	.
4r	.	.	.	.	.
8r	.	.	.	.	.
8C#	your	.	.	.	.
=66	=66	=66	=66	=66	=66
4.F#	Christ-	1r	.	1r	.
8GG#	-ma-	.	.	.	.
4.GG#	-ses	.	.	.	.
8GG#	be	.	.	.	.
=67	=67	=67	=67	=67	=67
[1AA	white.	1r	.	1r	.
=68	=68	=68	=68	=68	=68
1AA]	_	1r	.	1r	.
=69	=69	=69	=69	=69	=69
1r	.	1r	.	1r	.
=70	=70	=70	=70	=70	=70
1r	.	1r	.	1r	.
*-	*-	*-	*-	*-	*-
!!!ENC: Nathaniel Condit-Schultz